X:2803
T:Bonnie Lass
P:Mr John Stewart
C:Glen Coll.
R:Reel (8x32)
B:RSCDS 28-3
Z:Anselm Lingnau <anselm@strathspey.org>
M:C
L:1/8
K:F
A|"F"F2F2 AFcA|F2F2 "C7"AGGA|"F"F2F2 cAcA|"Bb"Bd"C7"GB "F"AF FA
  "F"F2F2 AFcA|F2F2 "C7"AGGA|"F"F2F2 cAcA|"Bb"Bd"C7"GB "F"AF F||
c|"F"f>a"Bb"fd "Am"cecA|"Dm"f2fa "Gm"gd"C7"de|\
    "F"f>a"Bb"fd "C"ce"Dm"fg|"C7"fdcB "F"AFFc|
  "F"f>a"Bb"fd "Am"cecA|"Dm"f2fa "Gm"gd"C7"de|\
    "F"f>a"Bb"fd "C"ce"Dm"fg|"C7"fdcB "F"AFF|]

